packages/kaspersky-hexa-ui-icons/src/iconsSVGs/16/UserAccount1.svg

<svg width="16" height="16" viewBox="0 0 16 16" fill="none" xmlns="http://www.w3.org/2000/svg">
<path fill-rule="evenodd" clip-rule="evenodd" d="M7.98429 1.10156C6.34879 1.10156 5.02295 2.4274 5.02295 4.0629C5.02295 5.69841 6.34879 7.02424 7.98429 7.02424C9.61979 7.02424 10.9456 5.69841 10.9456 4.0629C10.9456 2.4274 9.61979 1.10156 7.98429 1.10156ZM6.32295 4.0629C6.32295 3.14537 7.06676 2.40156 7.98429 2.40156C8.90182 2.40156 9.64563 3.14537 9.64563 4.0629C9.64563 4.98044 8.90182 5.72424 7.98429 5.72424C7.06676 5.72424 6.32295 4.98044 6.32295 4.0629Z" fill="black"/>
<path d="M5.6832 8.13477C3.66736 8.13477 2.0332 9.76893 2.0332 11.7848V12.8523C2.0332 13.9845 2.95102 14.9023 4.0832 14.9023H9.11246C8.93552 14.7097 8.76211 14.4938 8.59813 14.2523C8.45416 14.0402 8.33329 13.8223 8.23181 13.6023H4.0832C3.66899 13.6023 3.3332 13.2665 3.3332 12.8523V11.7848C3.3332 10.4869 4.38533 9.43477 5.6832 9.43477H7.72269C7.80106 8.91155 8.08948 8.44166 8.52114 8.13477H5.6832Z" fill="black"/>
<path fill-rule="evenodd" clip-rule="evenodd" d="M12.7634 8.16601C12.2868 7.91862 11.7196 7.91862 11.243 8.16601L9.55295 9.04329C9.52837 9.05605 9.50338 9.0684 9.47831 9.08079C9.41291 9.1131 9.34705 9.14565 9.28704 9.18618C9.10951 9.3061 9.00098 9.50731 9.00098 9.72476V10.5676C9.00098 11.4619 9.04315 12.5943 9.67351 13.5229C10.1147 14.1728 10.6425 14.5789 11.0622 14.8228C11.2721 14.9448 11.4566 15.0273 11.5928 15.0803C11.739 15.1373 11.8719 15.1651 12.0032 15.1644C12.1411 15.1637 12.2772 15.1317 12.425 15.0693C12.5973 14.9965 12.8505 14.8735 13.1384 14.679C13.5013 14.4339 13.9195 14.0744 14.2851 13.5622C14.9582 12.6192 15.0054 11.4477 15.0054 10.5258V9.72476C15.0054 9.4821 14.8703 9.25964 14.6549 9.14785L12.7634 8.16601ZM11.842 9.31983C11.9431 9.26735 12.0634 9.26735 12.1645 9.31983L13.7054 10.1197V10.5258C13.7054 11.4619 13.6333 12.2377 13.227 12.807C12.9166 13.2417 12.5521 13.5225 12.2654 13.6943C12.1604 13.7572 12.067 13.8047 11.9924 13.8393C11.9169 13.8066 11.8221 13.7608 11.7155 13.6989C11.4271 13.5312 11.0589 13.2491 10.7491 12.7927C10.3667 12.2295 10.301 11.4763 10.301 10.5676V10.1197L11.842 9.31983Z" fill="black"/>
</svg>

<svg xmlns="http://www.w3.org/2000/svg" width="16" height="16" fill="none" viewBox="0 0 16 16"><path fill="#000" fill-rule="evenodd" d="M7.9843 1.1016c-1.6355 0-2.9614 1.3258-2.9614 2.9613s1.3259 2.9613 2.9614 2.9613 2.9613-1.3258 2.9613-2.9613-1.3258-2.9613-2.9613-2.9613M6.3229 4.0629c0-.9175.7439-1.6613 1.6614-1.6613s1.6613.7438 1.6613 1.6613-.7438 1.6613-1.6613 1.6613-1.6614-.7438-1.6614-1.6613" clip-rule="evenodd"/><path fill="#000" d="M5.6832 8.1348c-2.0158 0-3.65 1.6341-3.65 3.65v1.0675c0 1.1322.9178 2.05 2.05 2.05h5.0293a5.66 5.66 0 0 1-.5144-.65 4.54 4.54 0 0 1-.3663-.65H4.0832a.75.75 0 0 1-.75-.75v-1.0675c0-1.2979 1.0521-2.35 2.35-2.35h2.0395a1.95 1.95 0 0 1 .7984-1.3z"/><path fill="#000" fill-rule="evenodd" d="M12.7634 8.166a1.65 1.65 0 0 0-1.5204 0l-1.69.8773q-.037.019-.0747.0375c-.0654.0323-.1313.0648-.1913.1054a.65.65 0 0 0-.286.5386v.8428c0 .8943.0422 2.0267.6725 2.9553.4412.6499.969 1.056 1.3887 1.2999.2099.122.3944.2045.5306.2575.1462.057.2791.0848.4104.0841.1379-.0007.274-.0327.4218-.0951.1723-.0728.4255-.1958.7134-.3903a4.51 4.51 0 0 0 1.1467-1.1168c.6731-.943.7203-2.1145.7203-3.0364v-.801a.65.65 0 0 0-.3505-.577zm-.9214 1.1538a.35.35 0 0 1 .3225 0l1.5409.7999v.4061c0 .9361-.0721 1.7119-.4784 2.2812a3.215 3.215 0 0 1-.9616.8873 3 3 0 0 1-.273.145 2.7 2.7 0 0 1-.2769-.1404c-.2884-.1677-.6566-.4498-.9664-.9062-.3824-.5632-.4481-1.3164-.4481-2.2251v-.4479z" clip-rule="evenodd"/></svg>
